packages/core/src/svgs/tokens/branded/NAOS.svg

<svg width="24" height="24" viewBox="0 0 24 24" fill="none" xmlns="http://www.w3.org/2000/svg">
<path d="M12 2C17.4883 2 22 6.45882 22 12C22 17.4882 17.5411 22 12 22C6.51176 22 2 17.5411 2 12C2 6.45882 6.45882 2 12 2Z" fill="url(#paint0_linear_364_6542)"/>
<path d="M14.0589 9.78819C14.247 9.90005 14.353 10.0823 14.353 10.2765C14.353 10.3647 14.3294 10.4529 14.2766 10.5353C14.2258 10.6257 14.1512 10.7004 14.0611 10.7512C13.9707 10.8021 13.8682 10.8271 13.7647 10.8235C13.6813 10.8175 13.6006 10.7912 13.5295 10.7471L7.29414 6.94118V16.8648L10.0118 15.6059C10.1 15.5529 10.1883 15.5294 10.2824 15.5294C10.4706 15.5294 10.6471 15.6352 10.7529 15.8236C10.8118 15.9118 10.8353 16.0176 10.8294 16.1177C10.8235 16.2941 10.7118 16.4647 10.5471 16.5647L6.97062 18.3647C6.86473 18.4177 6.75885 18.4707 6.65297 18.4707C6.32943 18.4707 6.11768 18.2589 6.11768 17.9411V6.07649C6.11768 5.9706 6.11768 5.91766 6.17649 5.81178C6.32943 5.54707 6.64708 5.44119 6.91766 5.60001L14.0648 9.78242L14.0589 9.78819Z" fill="#F0F3FA"/>
<path d="M9.91196 13.5589C9.82919 13.5118 9.76084 13.4431 9.71417 13.3602C9.66751 13.2773 9.64445 13.1833 9.64719 13.0882C9.64719 13.0059 9.6649 12.9235 9.70017 12.8411C9.77662 12.6648 9.98841 12.5824 10.2002 12.5882C10.2883 12.5882 10.3766 12.6059 10.453 12.6353L16.7061 16.4118V6.96472L14.0001 8.40001C13.9109 8.45133 13.8088 8.47583 13.706 8.4706C13.614 8.46369 13.5249 8.43502 13.4463 8.38695C13.3675 8.33889 13.3013 8.2728 13.253 8.19412C13.197 8.10888 13.1701 8.00772 13.1766 7.90589C13.1884 7.73531 13.2942 7.57648 13.4707 7.47649L17.0237 5.62942C17.1295 5.58237 17.2355 5.52942 17.3413 5.52942C17.6648 5.52942 17.8825 5.7353 17.8825 6.04119V17.3706C17.8825 17.4765 17.8825 17.5236 17.8236 17.6294C17.6648 17.8824 17.3413 17.9354 17.0767 17.8353L9.91196 13.5589Z" fill="#F0F3FA"/>
<defs>
<linearGradient id="paint0_linear_364_6542" x1="18.7648" y1="4.05882" x2="3.17646" y2="18.7646" gradientUnits="userSpaceOnUse">
<stop stop-color="#5A47F0"/>
<stop offset="1" stop-color="#2A1BA8"/>
</linearGradient>
</defs>
</svg>

<svg xmlns="http://www.w3.org/2000/svg" width="24" height="24" fill="none" viewBox="0 0 24 24">
    <path fill="url(#NAOS__a)" d="M12 2c5.488 0 10 4.459 10 10 0 5.488-4.459 10-10 10-5.488 0-10-4.459-10-10S6.459 2 12 2"/>
    <path fill="#F0F3FA" d="M14.059 9.788a.57.57 0 0 1 .294.489.47.47 0 0 1-.076.258.57.57 0 0 1-.512.288.5.5 0 0 1-.236-.076L7.295 6.941v9.924l2.718-1.26a.5.5 0 0 1 .27-.076c.189 0 .365.106.47.295a.48.48 0 0 1 .077.294.56.56 0 0 1-.282.447l-3.576 1.8c-.106.053-.212.106-.318.106-.324 0-.535-.212-.535-.53V6.076c0-.105 0-.158.058-.264.153-.265.471-.37.742-.212l7.147 4.182z"/>
    <path fill="#F0F3FA" d="M9.912 13.559a.53.53 0 0 1-.265-.47q0-.124.053-.248c.077-.176.288-.259.5-.253.088 0 .177.018.253.047l6.253 3.777V6.965L14 8.4a.54.54 0 0 1-.554-.013.6.6 0 0 1-.193-.193.47.47 0 0 1-.076-.288.55.55 0 0 1 .294-.43l3.553-1.847c.105-.047.211-.1.317-.1.324 0 .541.206.541.512v11.33c0 .106 0 .153-.058.258-.16.253-.483.306-.747.206z"/>
    <defs>
        <linearGradient id="NAOS__a" x1="18.765" x2="3.176" y1="4.059" y2="18.765" gradientUnits="userSpaceOnUse">
            <stop stop-color="#5A47F0"/>
            <stop offset="1" stop-color="#2A1BA8"/>
        </linearGradient>
    </defs>
</svg>
